src/basic/300/u2190-left.svg

<svg width="64" height="48" viewBox="0 0 64 48" fill="none" xmlns="http://www.w3.org/2000/svg">
<path fill-rule="evenodd" clip-rule="evenodd" d="M1.14645,24.158l15.99995,-15.99998l0.7072,0.70711l-15.14349,15.14347h61.28989v1h-61.2959l15.1495,15.1494l-0.7072,0.7071l-15.99995,-16l-0.35356,-0.3535z" fill="black"/>
</svg>

<svg width="64" height="48" viewBox="0 0 64 48" fill="none" xmlns="http://www.w3.org/2000/svg">
<path fill-rule="evenodd" clip-rule="evenodd" d="M1.14645 24.158L17.1464 8.15802L17.8536 8.86513L2.71011 24.0086H64V25.0086H2.7041L17.8536 40.158L17.1464 40.8651L1.14645 24.8651L0.792892 24.5116L1.14645 24.158Z" fill="black"/>
</svg>
